icons/svg/16x16/windows/filled.svg

<svg xmlns="http://www.w3.org/2000/svg" width="16" height="16" viewBox="0 0 16 16">
  <path fill-rule="evenodd" d="M13,1 L7,1 C5.896,1 5,1.896 5,3 L5,4 L10,4 C11.104,4 12,4.896 12,6 L12,11 L13,11 C14.104,11 15,10.104 15,9 L15,3 C15,1.896 14.104,1 13,1 M11,7 L11,13 C11,14.104 10.104,15 9,15 L3,15 C1.896,15 1,14.104 1,13 L1,7 C1,5.896 1.896,5 3,5 L9,5 C10.104,5 11,5.896 11,7"/>
</svg>

<svg width="16" height="16" fill="none" xmlns="http://www.w3.org/2000/svg">
  <path fill-rule="evenodd" clip-rule="evenodd" d="M13 1H7a2 2 0 00-2 2v1h5a2 2 0 012 2v5h1a2 2 0 002-2V3a2 2 0 00-2-2zm-2 6v6a2 2 0 01-2 2H3a2 2 0 01-2-2V7a2 2 0 012-2h6a2 2 0 012 2z" fill="#000"/>
</svg>
